svg/nasa.svg

<svg xmlns="http://www.w3.org/2000/svg" xml:space="preserve" id="nasa_svg__Layer_1" x="0" y="0" version="1.1" viewBox="0 0 512 512"><style>.nasa_svg__st1{fill:#fff}</style><circle cx="238" cy="256" r="209.5" style="fill:#0b3d91"/><path d="M225.6 84.4c1.3 0 2.3 1 2.3 2.3s-1 2.3-2.3 2.3-2.3-1-2.3-2.3 1-2.3 2.3-2.3m24.1 3.2c1.3 0 2.3 1 2.3 2.3s-1 2.3-2.3 2.3-2.3-1-2.3-2.3 1-2.3 2.3-2.3m31.7 42.6c1.3 0 2.3 1 2.3 2.3s-1 2.3-2.3 2.3-2.3-1-2.3-2.3 1-2.3 2.3-2.3M107.9 349.4c1.3 0 2.3 1 2.3 2.3s-1 2.3-2.3 2.3-2.3-1-2.3-2.3 1-2.3 2.3-2.3m6.1 18.8c1.3 0 2.3 1 2.3 2.3s-1 2.3-2.3 2.3-2.3-1-2.3-2.3 1-2.3 2.3-2.3m-29.1-15.5c1 0 1.8.8 1.8 1.8s-.8 1.8-1.8 1.8-1.8-.8-1.8-1.8.8-1.8 1.8-1.8m95.5 36.9c1 0 1.8.8 1.8 1.8s-.8 1.8-1.8 1.8-1.8-.8-1.8-1.8.8-1.8 1.8-1.8m149.8-31.1c1 0 1.8.8 1.8 1.8s-.8 1.8-1.8 1.8-1.8-.8-1.8-1.8.8-1.8 1.8-1.8m43.5-47.3c1 0 1.8.8 1.8 1.8s-.8 1.8-1.8 1.8-1.8-.8-1.8-1.8.8-1.8 1.8-1.8M160.3 144.4c1 0 1.8.8 1.8 1.8s-.8 1.8-1.8 1.8-1.8-.8-1.8-1.8.8-1.8 1.8-1.8m47.9-35.2c1 0 1.8.8 1.8 1.8s-.8 1.8-1.8 1.8-1.8-.8-1.8-1.8.8-1.8 1.8-1.8m-5.2-3.4c1 0 1.8.8 1.8 1.8s-.8 1.8-1.8 1.8-1.8-.8-1.8-1.8.8-1.8 1.8-1.8m-4.7-3.5c1 0 1.8.8 1.8 1.8s-.8 1.8-1.8 1.8-1.8-.8-1.8-1.8.8-1.8 1.8-1.8m-30.4 51.2c1 0 1.8.8 1.8 1.8s-.8 1.8-1.8 1.8-1.8-.8-1.8-1.8.8-1.8 1.8-1.8m70.5-91.6c1 0 1.8.8 1.8 1.8s-.8 1.8-1.8 1.8-1.8-.8-1.8-1.8.8-1.8 1.8-1.8m11.6 50.8c1 0 1.8.8 1.8 1.8s-.8 1.8-1.8 1.8-1.8-.8-1.8-1.8.8-1.8 1.8-1.8m-18.3-9.9c1 0 1.8.8 1.8 1.8s-.8 1.8-1.8 1.8-1.8-.8-1.8-1.8.8-1.8 1.8-1.8m-31.3 13.4c1 0 1.8.8 1.8 1.8s-.8 1.8-1.8 1.8-1.8-.8-1.8-1.8.8-1.8 1.8-1.8m138.1 288.7c1 0 1.8.8 1.8 1.8s-.8 1.8-1.8 1.8-1.8-.8-1.8-1.8.8-1.8 1.8-1.8m-233.6-43.1c1 0 1.8.8 1.8 1.8s-.8 1.8-1.8 1.8-1.8-.8-1.8-1.8.8-1.8 1.8-1.8m122.4 22.7c1 0 1.8.8 1.8 1.8s-.8 1.8-1.8 1.8-1.8-.8-1.8-1.8.8-1.8 1.8-1.8m-86-24.1c1 0 1.8.8 1.8 1.8s-.8 1.8-1.8 1.8-1.8-.8-1.8-1.8.8-1.8 1.8-1.8m15.3 24.8c1 0 1.8.8 1.8 1.8s-.8 1.8-1.8 1.8-1.8-.8-1.8-1.8.8-1.8 1.8-1.8m112.1-15.6c1 0 1.8.8 1.8 1.8s-.8 1.8-1.8 1.8-1.8-.8-1.8-1.8.8-1.8 1.8-1.8m61.8-34.9c1 0 1.8.8 1.8 1.8s-.8 1.8-1.8 1.8-1.8-.8-1.8-1.8.8-1.8 1.8-1.8m46.8 21.4c1 0 1.8.8 1.8 1.8s-.8 1.8-1.8 1.8-1.8-.8-1.8-1.8.8-1.8 1.8-1.8m16 10.2c1 0 1.8.8 1.8 1.8s-.8 1.8-1.8 1.8-1.8-.8-1.8-1.8.8-1.8 1.8-1.8m2.6-27.9c1 0 1.8.8 1.8 1.8s-.8 1.8-1.8 1.8-1.8-.8-1.8-1.8.8-1.8 1.8-1.8M163 299c1 0 1.8.8 1.8 1.8s-.8 1.8-1.8 1.8-1.8-.8-1.8-1.8.8-1.8 1.8-1.8m.6 39.9c1.3 0 2.3 1 2.3 2.3s-1 2.3-2.3 2.3-2.3-1-2.3-2.3 1-2.3 2.3-2.3m14.1 29.7c1.3 0 2.3 1 2.3 2.3s-1 2.3-2.3 2.3-2.3-1-2.3-2.3 1-2.3 2.3-2.3m168.8-31c1.3 0 2.3 1 2.3 2.3s-1 2.3-2.3 2.3-2.3-1-2.3-2.3 1-2.3 2.3-2.3m60.7-3.4c1.3 0 2.3 1 2.3 2.3s-1 2.3-2.3 2.3-2.3-1-2.3-2.3 1-2.3 2.3-2.3m-30-12.9c1.3 0 2.3 1 2.3 2.3s-1 2.3-2.3 2.3-2.3-1-2.3-2.3 1-2.3 2.3-2.3m-30.7 1.3c1.3 0 2.3 1 2.3 2.3s-1 2.3-2.3 2.3-2.3-1-2.3-2.3 1-2.3 2.3-2.3M283.2 85.3l5.8-.6-5.8-.3c-.2-1.1-1.1-2-2.2-2.2l-.6-5.8-.3 5.9c-1.1.2-1.9 1.1-2 2.2l-6 .5 6 .3c.2 1 1 1.8 2.1 2l.5 6 .3-6c1.1-.1 2-1 2.2-2m-98.6 65 5.8-.6-5.8-.3c-.2-1.1-1.1-2-2.2-2.2l-.6-5.8-.3 5.9c-1.1.2-1.9 1.1-2 2.2l-6 .5 6 .3c.2 1 1 1.8 2.1 2l.5 6 .3-6c1.2-.1 2-.9 2.2-2M403 322.2l5.8-.6-5.8-.3c-.2-1.1-1.1-2-2.2-2.2l-.6-5.8-.3 5.9c-1.1.2-1.9 1.1-2 2.2l-6 .5 6 .3c.2 1 1 1.8 2.1 2l.5 6 .3-6c1.1-.1 2-.9 2.2-2m-238.1 89.9 5.8-.6-5.8-.3c-.2-1.1-1.1-2-2.2-2.2l-.6-5.8-.3 5.9c-1.1.2-1.9 1.1-2 2.2l-6 .5 6 .3c.2 1 1 1.8 2.1 2l.5 6 .3-6c1.1-.1 2-1 2.2-2m219.5-43.9 5.8-.6-5.8-.3c-.2-1.1-1.1-2-2.2-2.2l-.6-5.8-.3 5.9c-1.1.2-1.9 1.1-2 2.2l-6 .5 6 .3c.2 1 1 1.8 2.1 2l.5 6 .3-6c1.2-.1 2-.9 2.2-2" class="nasa_svg__st1"/><path d="M287.7 205.8c-24.4 9.5-48.1 17.9-68.2 24.2C178.8 242.8 67.3 277.3 0 320.8l5.6 2.2c41-23.2 67.7-30.5 93.3-38.5 27.9-8.8 118-29.9 158.8-41.3 13.8-3.9 29.9-9 47-15.1-4-5.5-8.2-11.1-12.6-16.7-1.4-1.9-2.9-3.8-4.4-5.6m29.7 41c-5.9 4-10.8 7.2-14.3 9.2-20 11.6-117.7 78.3-140 93.6-22.2 15.3-83.9 73.6-102.1 90.5l-.6 6.9c58.6-52.6 76.9-65.6 100.2-83.3 28.8-21.9 88.4-62.5 108.7-75.5 19.4-12.4 36.8-23.8 52.5-34.3-.3-.4-.5-.9-.8-1.3-1.1-1.9-2.3-3.8-3.6-5.8m91.6-96.6c-28.5 16.7-73.5 36.9-117.1 54 1 1.3 2.1 2.6 3.1 3.9 4.9 6.1 9.5 12.3 13.8 18.5 34.3-12.6 71.9-29.6 101.8-50.1-14.2 13.5-61.2 48.6-89.9 68.2 1.5 2.4 2.9 4.8 4.3 7.2 43.4-29.1 72.7-50.5 89.7-64.8 23.5-19.7 77-63.9 97.4-123.1-35.8 45.4-78 71.4-103.1 86.2" style="fill:#fc3d21"/><path d="M211 307.9c-4.6-5.8-11-13.6-15.8-19.6-6.4-8.1-12.3-16.2-17.8-24.4-1.8.4-3.5.9-5.3 1.3 6.6 10.2 13.9 20.5 21.8 30.5 5.8 7.3 11.1 13.2 13.8 16.8.5.7 1.6 2.4 3.1 4.6 1.7-1.1 3.4-2.3 5.1-3.5-1.6-1.8-3.3-3.7-4.9-5.7m33.8 30.6c-3.8-3.6-13-9.6-22.6-18.6-2.1 1.5-4.2 2.9-6.4 4.4 6.2 8.7 14.6 19.4 21.2 22.5 9.9 4.7 12.6-3.7 7.8-8.3M295 208.1c-54.8-68.9-121.7-106.8-150.5-83.9-22.4 17.8-13.2 69.8 17.7 124.4 1.6-.5 3.2-1.1 4.7-1.6-31.2-53.2-39.7-102.7-18.6-119.5 26.5-21.1 90.7 16.9 143.8 83.8 11 13.9 20.7 27.8 28.9 41.3 31.4 51.9 41 98.9 19.3 118.1-6.6 5.9-26.9 8.2-53.5-3.8-.4.5.2 1.7.7 2 22.9 9.2 44.9 12.7 56 3.9 26.7-21.1 6.2-95.8-48.5-164.7m-234.9 8.1h35.1l29.4 49.9v-39c0-4.4-5.6-10.1-7.5-11h24.3c-1.5.4-6.3 6.2-6.3 11v57.3c0 3.5 5.1 8.4 7.5 10.3h-33.8l-29.9-50.2V284c0 3.9 3.8 7.7 7.8 10.9H60.9c3.7-1.6 7.2-6.5 7.5-10.4s0-54.4 0-56.6c0-4.8-4.6-8.7-8.3-11.7m320.8 78.6h46.7c-2.6-.6-5.5-3.7-7-7.8-1.6-4.1-26.3-70.8-26.3-70.8h-17.7c-5 3.6-10.4 7.4-16.2 11.5 0 .1 0 .3-.1.4-.8 4.7-14.7 55-15.5 57.5-1.2 3.4-7.2 7.3-9.6 9.3h25.1c-2.5-2.8-4.5-5.6-4.1-8.7.5-3.1 1.9-9.4 1.9-9.4h26c1.2 3.1 2.1 5.9 2.5 8.6.5 3.2-2.8 6.8-5.7 9.4m-20.5-28 8.8-28.7 11.6 28.7zm-3.9-47.7c1.3-.9 2.6-1.9 3.9-2.9h-6.8c.6.7 1.7 1.6 2.9 2.9M178 286.2c.5-3.1 1.9-9.4 1.9-9.4h26c1.2 3.1 2.1 5.9 2.5 8.6.5 3.2-2.7 6.8-5.6 9.3h41.1c.9-.6 1.7-1.1 2.6-1.7-1.6-1.4-3.1-3.5-4-6-1.6-4.1-26.3-70.8-26.3-70.8h-40.7c2 1.8 7.6 6.7 6.7 11.9-.8 4.7-14.7 55-15.5 57.5-1.2 3.4-7.2 7.3-9.6 9.3h25.1c-2.6-2.8-4.6-5.6-4.2-8.7m13-48 11.6 28.7h-20.4zm128.9 17c-7.7 5.1-15.7 10.4-24.3 16 3.8 1.9 6.9 4.2 7.2 7.2.5 5.6-10.8 8.4-21.1 7.2-2.1-.2-4.1-.8-6-1.5-2.1 1.4-4.3 2.8-6.5 4.2s-4.9 3.2-8 5.2v8.1c2-4 6.5-7.6 9.9-7.8 1.5-.1 6.7 4.7 27.9 3.5 10.3-.6 30.3-11.6 30-24.3 0-7.4-3.9-13.3-9.1-17.8m-58.6 19.6v8.3c1.9-1.3 3.7-2.5 5.6-3.7-2.9-2-4.9-3.9-5.6-4.6m51.3-24.8c-2-1.2-4-2.2-5.9-3.1-10-4.7-20.5-5.6-22.7-11.9-1.5-4.5 2.8-8.6 13.5-8.5 10.6.2 20.5 6.5 23.2 8.8v-20.2c-.8.8-4.2 4.7-7.4 4.1-6-1.3-16.3-2.9-28-2.8-13.5.1-25.1 10.5-25.4 23.6-.5 18.4 14.2 23.4 22.5 26.3.9.3 1.8.6 2.9 1 8-5.2 14.3-9.2 17.9-11.3 2.4-1.4 5.6-3.5 9.4-6" class="nasa_svg__st1"/></svg>

<?xml version="1.0" encoding="utf-8"?>
<!-- Generator: Adobe Illustrator 28.2.0, SVG Export Plug-In . SVG Version: 6.00 Build 0)  -->
<svg version="1.1" id="Layer_1" xmlns="http://www.w3.org/2000/svg" xmlns:xlink="http://www.w3.org/1999/xlink" x="0px" y="0px"
	 viewBox="0 0 512 512" style="enable-background:new 0 0 512 512;" xml:space="preserve">
<style type="text/css">
	.st0{fill:#0B3D91;}
	.st1{fill:#FFFFFF;}
	.st2{fill:#FC3D21;}
</style>
<circle class="st0" cx="238" cy="256" r="209.5"/>
<path class="st1" d="M225.6,84.4c1.3,0,2.3,1,2.3,2.3s-1,2.3-2.3,2.3s-2.3-1-2.3-2.3S224.3,84.4,225.6,84.4z M249.7,87.6
	c1.3,0,2.3,1,2.3,2.3s-1,2.3-2.3,2.3s-2.3-1-2.3-2.3S248.4,87.6,249.7,87.6z M281.4,130.2c1.3,0,2.3,1,2.3,2.3s-1,2.3-2.3,2.3
	s-2.3-1-2.3-2.3S280.1,130.2,281.4,130.2z M107.9,349.4c1.3,0,2.3,1,2.3,2.3s-1,2.3-2.3,2.3s-2.3-1-2.3-2.3S106.6,349.4,107.9,349.4
	z M114,368.2c1.3,0,2.3,1,2.3,2.3s-1,2.3-2.3,2.3s-2.3-1-2.3-2.3S112.7,368.2,114,368.2z M84.9,352.7c1,0,1.8,0.8,1.8,1.8
	s-0.8,1.8-1.8,1.8s-1.8-0.8-1.8-1.8S83.9,352.7,84.9,352.7z M180.4,389.6c1,0,1.8,0.8,1.8,1.8s-0.8,1.8-1.8,1.8s-1.8-0.8-1.8-1.8
	S179.4,389.6,180.4,389.6z M330.2,358.5c1,0,1.8,0.8,1.8,1.8s-0.8,1.8-1.8,1.8s-1.8-0.8-1.8-1.8S329.2,358.5,330.2,358.5z
	 M373.7,311.2c1,0,1.8,0.8,1.8,1.8s-0.8,1.8-1.8,1.8s-1.8-0.8-1.8-1.8S372.7,311.2,373.7,311.2z M160.3,144.4c1,0,1.8,0.8,1.8,1.8
	s-0.8,1.8-1.8,1.8s-1.8-0.8-1.8-1.8S159.3,144.4,160.3,144.4z M208.2,109.2c1,0,1.8,0.8,1.8,1.8s-0.8,1.8-1.8,1.8s-1.8-0.8-1.8-1.8
	S207.2,109.2,208.2,109.2z M203,105.8c1,0,1.8,0.8,1.8,1.8s-0.8,1.8-1.8,1.8s-1.8-0.8-1.8-1.8S202,105.8,203,105.8z M198.3,102.3
	c1,0,1.8,0.8,1.8,1.8s-0.8,1.8-1.8,1.8s-1.8-0.8-1.8-1.8S197.3,102.3,198.3,102.3z M167.9,153.5c1,0,1.8,0.8,1.8,1.8
	s-0.8,1.8-1.8,1.8s-1.8-0.8-1.8-1.8S166.9,153.5,167.9,153.5z M238.4,61.9c1,0,1.8,0.8,1.8,1.8s-0.8,1.8-1.8,1.8s-1.8-0.8-1.8-1.8
	S237.4,61.9,238.4,61.9z M250,112.7c1,0,1.8,0.8,1.8,1.8s-0.8,1.8-1.8,1.8s-1.8-0.8-1.8-1.8S249,112.7,250,112.7z M231.7,102.8
	c1,0,1.8,0.8,1.8,1.8s-0.8,1.8-1.8,1.8s-1.8-0.8-1.8-1.8S230.7,102.8,231.7,102.8z M200.4,116.2c1,0,1.8,0.8,1.8,1.8
	s-0.8,1.8-1.8,1.8s-1.8-0.8-1.8-1.8S199.4,116.2,200.4,116.2z M338.5,404.9c1,0,1.8,0.8,1.8,1.8s-0.8,1.8-1.8,1.8s-1.8-0.8-1.8-1.8
	S337.5,404.9,338.5,404.9z M104.9,361.8c1,0,1.8,0.8,1.8,1.8s-0.8,1.8-1.8,1.8s-1.8-0.8-1.8-1.8S103.9,361.8,104.9,361.8z
	 M227.3,384.5c1,0,1.8,0.8,1.8,1.8s-0.8,1.8-1.8,1.8s-1.8-0.8-1.8-1.8S226.3,384.5,227.3,384.5z M141.3,360.4c1,0,1.8,0.8,1.8,1.8
	s-0.8,1.8-1.8,1.8s-1.8-0.8-1.8-1.8S140.3,360.4,141.3,360.4z M156.6,385.2c1,0,1.8,0.8,1.8,1.8s-0.8,1.8-1.8,1.8s-1.8-0.8-1.8-1.8
	S155.6,385.2,156.6,385.2z M268.7,369.6c1,0,1.8,0.8,1.8,1.8s-0.8,1.8-1.8,1.8s-1.8-0.8-1.8-1.8S267.7,369.6,268.7,369.6z
	 M330.5,334.7c1,0,1.8,0.8,1.8,1.8s-0.8,1.8-1.8,1.8s-1.8-0.8-1.8-1.8S329.5,334.7,330.5,334.7z M377.3,356.1c1,0,1.8,0.8,1.8,1.8
	s-0.8,1.8-1.8,1.8s-1.8-0.8-1.8-1.8S376.3,356.1,377.3,356.1z M393.3,366.3c1,0,1.8,0.8,1.8,1.8s-0.8,1.8-1.8,1.8s-1.8-0.8-1.8-1.8
	S392.3,366.3,393.3,366.3z M395.9,338.4c1,0,1.8,0.8,1.8,1.8s-0.8,1.8-1.8,1.8s-1.8-0.8-1.8-1.8S394.9,338.4,395.9,338.4z M163,299
	c1,0,1.8,0.8,1.8,1.8s-0.8,1.8-1.8,1.8s-1.8-0.8-1.8-1.8S162,299,163,299z M163.6,338.9c1.3,0,2.3,1,2.3,2.3s-1,2.3-2.3,2.3
	s-2.3-1-2.3-2.3S162.3,338.9,163.6,338.9z M177.7,368.6c1.3,0,2.3,1,2.3,2.3s-1,2.3-2.3,2.3s-2.3-1-2.3-2.3S176.4,368.6,177.7,368.6
	z M346.5,337.6c1.3,0,2.3,1,2.3,2.3s-1,2.3-2.3,2.3s-2.3-1-2.3-2.3S345.2,337.6,346.5,337.6z M407.2,334.2c1.3,0,2.3,1,2.3,2.3
	s-1,2.3-2.3,2.3s-2.3-1-2.3-2.3S405.9,334.2,407.2,334.2z M377.2,321.3c1.3,0,2.3,1,2.3,2.3s-1,2.3-2.3,2.3s-2.3-1-2.3-2.3
	S375.9,321.3,377.2,321.3z M346.5,322.6c1.3,0,2.3,1,2.3,2.3s-1,2.3-2.3,2.3s-2.3-1-2.3-2.3S345.2,322.6,346.5,322.6z M283.2,85.3
	l5.8-0.6l-5.8-0.3c-0.2-1.1-1.1-2-2.2-2.2l-0.6-5.8l-0.3,5.9c-1.1,0.2-1.9,1.1-2,2.2l-6,0.5l6,0.3c0.2,1,1,1.8,2.1,2l0.5,6l0.3-6
	C282.1,87.2,283,86.3,283.2,85.3z M184.6,150.3l5.8-0.6l-5.8-0.3c-0.2-1.1-1.1-2-2.2-2.2l-0.6-5.8l-0.3,5.9c-1.1,0.2-1.9,1.1-2,2.2
	l-6,0.5l6,0.3c0.2,1,1,1.8,2.1,2l0.5,6l0.3-6C183.6,152.2,184.4,151.4,184.6,150.3z M403,322.2l5.8-0.6l-5.8-0.3
	c-0.2-1.1-1.1-2-2.2-2.2l-0.6-5.8l-0.3,5.9c-1.1,0.2-1.9,1.1-2,2.2l-6,0.5l6,0.3c0.2,1,1,1.8,2.1,2l0.5,6l0.3-6
	C401.9,324.1,402.8,323.3,403,322.2z M164.9,412.1l5.8-0.6l-5.8-0.3c-0.2-1.1-1.1-2-2.2-2.2l-0.6-5.8l-0.3,5.9
	c-1.1,0.2-1.9,1.1-2,2.2l-6,0.5l6,0.3c0.2,1,1,1.8,2.1,2l0.5,6l0.3-6C163.8,414,164.7,413.1,164.9,412.1z M384.4,368.2l5.8-0.6
	l-5.8-0.3c-0.2-1.1-1.1-2-2.2-2.2l-0.6-5.8l-0.3,5.9c-1.1,0.2-1.9,1.1-2,2.2l-6,0.5l6,0.3c0.2,1,1,1.8,2.1,2l0.5,6l0.3-6
	C383.4,370.1,384.2,369.3,384.4,368.2z"/>
<path class="st2" d="M287.7,205.8c-24.4,9.5-48.1,17.9-68.2,24.2C178.8,242.8,67.3,277.3,0,320.8l5.6,2.2
	c41-23.2,67.7-30.5,93.3-38.5c27.9-8.8,118-29.9,158.8-41.3c13.8-3.9,29.9-9,47-15.1c-4-5.5-8.2-11.1-12.6-16.7
	C290.7,209.5,289.2,207.6,287.7,205.8z M317.4,246.8c-5.9,4-10.8,7.2-14.3,9.2c-20,11.6-117.7,78.3-140,93.6
	c-22.2,15.3-83.9,73.6-102.1,90.5l-0.6,6.9c58.6-52.6,76.9-65.6,100.2-83.3c28.8-21.9,88.4-62.5,108.7-75.5
	c19.4-12.4,36.8-23.8,52.5-34.3c-0.3-0.4-0.5-0.9-0.8-1.3C319.9,250.7,318.7,248.8,317.4,246.8z M409,150.2
	c-28.5,16.7-73.5,36.9-117.1,54c1,1.3,2.1,2.6,3.1,3.9c4.9,6.1,9.5,12.3,13.8,18.5c34.3-12.6,71.9-29.6,101.8-50.1
	c-14.2,13.5-61.2,48.6-89.9,68.2c1.5,2.4,2.9,4.8,4.3,7.2c43.4-29.1,72.7-50.5,89.7-64.8c23.5-19.7,77-63.9,97.4-123.1
	C476.3,109.4,434.1,135.4,409,150.2z"/>
<path class="st1" d="M211,307.9c-4.6-5.8-11-13.6-15.8-19.6c-6.4-8.1-12.3-16.2-17.8-24.4c-1.8,0.4-3.5,0.9-5.3,1.3
	c6.6,10.2,13.9,20.5,21.8,30.5c5.8,7.3,11.1,13.2,13.8,16.8c0.5,0.7,1.6,2.4,3.1,4.6c1.7-1.1,3.4-2.3,5.1-3.5
	C214.3,311.8,212.6,309.9,211,307.9z M244.8,338.5c-3.8-3.6-13-9.6-22.6-18.6c-2.1,1.5-4.2,2.9-6.4,4.4c6.2,8.7,14.6,19.4,21.2,22.5
	C246.9,351.5,249.6,343.1,244.8,338.5z M295,208.1c-54.8-68.9-121.7-106.8-150.5-83.9c-22.4,17.8-13.2,69.8,17.7,124.4
	c1.6-0.5,3.2-1.1,4.7-1.6c-31.2-53.2-39.7-102.7-18.6-119.5c26.5-21.1,90.7,16.9,143.8,83.8c11,13.9,20.7,27.8,28.9,41.3
	c31.4,51.9,41,98.9,19.3,118.1c-6.6,5.9-26.9,8.2-53.5-3.8c-0.4,0.5,0.2,1.7,0.7,2c22.9,9.2,44.9,12.7,56,3.9
	C370.2,351.7,349.7,277,295,208.1z M60.1,216.2h35.1l29.4,49.9c0,0,0-36.2,0-39c0-4.4-5.6-10.1-7.5-11c2.3,0,22.9,0,24.3,0
	c-1.5,0.4-6.3,6.2-6.3,11c0,2.3,0,54.8,0,57.3c0,3.5,5.1,8.4,7.5,10.3h-33.8l-29.9-50.2c0,0,0,37.4,0,39.5c0,3.9,3.8,7.7,7.8,10.9
	H60.9c3.7-1.6,7.2-6.5,7.5-10.4s0-54.4,0-56.6C68.4,223.1,63.8,219.2,60.1,216.2z M380.9,294.8h46.7c-2.6-0.6-5.5-3.7-7-7.8
	c-1.6-4.1-26.3-70.8-26.3-70.8h-17.7c-5,3.6-10.4,7.4-16.2,11.5c0,0.1,0,0.3-0.1,0.4c-0.8,4.7-14.7,55-15.5,57.5
	c-1.2,3.4-7.2,7.3-9.6,9.3h25.1c-2.5-2.8-4.5-5.6-4.1-8.7c0.5-3.1,1.9-9.4,1.9-9.4h26c1.2,3.1,2.1,5.9,2.5,8.6
	C387.1,288.6,383.8,292.2,380.9,294.8z M360.4,266.8l8.8-28.7l11.6,28.7H360.4z M356.5,219.1c1.3-0.9,2.6-1.9,3.9-2.9h-6.8
	C354.2,216.9,355.3,217.8,356.5,219.1z M178,286.2c0.5-3.1,1.9-9.4,1.9-9.4h26c1.2,3.1,2.1,5.9,2.5,8.6c0.5,3.2-2.7,6.8-5.6,9.3
	h41.1c0.9-0.6,1.7-1.1,2.6-1.7c-1.6-1.4-3.1-3.5-4-6c-1.6-4.1-26.3-70.8-26.3-70.8h-40.7c2,1.8,7.6,6.7,6.7,11.9
	c-0.8,4.7-14.7,55-15.5,57.5c-1.2,3.4-7.2,7.3-9.6,9.3h25.1C179.6,292.1,177.6,289.3,178,286.2z M191,238.2l11.6,28.7h-20.4
	L191,238.2z M319.9,255.2c-7.7,5.1-15.7,10.4-24.3,16c3.8,1.9,6.9,4.2,7.2,7.2c0.5,5.6-10.8,8.4-21.1,7.2c-2.1-0.2-4.1-0.8-6-1.5
	c-2.1,1.4-4.3,2.8-6.5,4.2c-2.2,1.4-4.9,3.2-8,5.2v8.1c2-4,6.5-7.6,9.9-7.8c1.5-0.1,6.7,4.7,27.9,3.5c10.3-0.6,30.3-11.6,30-24.3
	C329,265.6,325.1,259.7,319.9,255.2z M261.3,274.8v8.3c1.9-1.3,3.7-2.5,5.6-3.7C264,277.4,262,275.5,261.3,274.8z M312.6,250
	c-2-1.2-4-2.2-5.9-3.1c-10-4.7-20.5-5.6-22.7-11.9c-1.5-4.5,2.8-8.6,13.5-8.5c10.6,0.2,20.5,6.5,23.2,8.8v-20.2
	c-0.8,0.8-4.2,4.7-7.4,4.1c-6-1.3-16.3-2.9-28-2.8c-13.5,0.1-25.1,10.5-25.4,23.6c-0.5,18.4,14.2,23.4,22.5,26.3
	c0.9,0.3,1.8,0.6,2.9,1c8-5.2,14.3-9.2,17.9-11.3C305.6,254.6,308.8,252.5,312.6,250z"/>
</svg>
